svg/file_word.svg

<svg xmlns="http://www.w3.org/2000/svg" viewBox="0 0 24 24"><path d="M14 2H6a2 2 0 0 0-2 2v16a2 2 0 0 0 2 2h12a2 2 0 0 0 2-2V8zm1.2 18h-1.4L12 13.2 10.2 20H8.8l-2.2-9h1.5l1.4 6.8 1.8-6.8h1.3l1.8 6.8 1.4-6.8h1.5zM13 9V3.5L18.5 9z"/></svg>

<?xml version="1.0" encoding="UTF-8"?><!DOCTYPE svg PUBLIC "-//W3C//DTD SVG 1.1//EN" "http://www.w3.org/Graphics/SVG/1.1/DTD/svg11.dtd"><svg xmlns="http://www.w3.org/2000/svg" xmlns:xlink="http://www.w3.org/1999/xlink" version="1.1" id="mdi-file-word" width="24" height="24" viewBox="0 0 24 24"><path d="M14,2H6A2,2 0 0,0 4,4V20A2,2 0 0,0 6,22H18A2,2 0 0,0 20,20V8L14,2M15.2,20H13.8L12,13.2L10.2,20H8.8L6.6,11H8.1L9.5,17.8L11.3,11H12.6L14.4,17.8L15.8,11H17.3L15.2,20M13,9V3.5L18.5,9H13Z" /></svg>
